X:1
T:Entiende
T:Entiende
T:Walls
C:Walls
%%score { 1 | 2 }
L:1/8
Q:1/4=80
M:4/4
K:F
V:1 treble nm="Piano" snm="Pno."
V:2 treble 
V:1
 z2 F E3 F2 | z2 E D3 E2 | z2 C B,3 C2 | A,2 C2 ED F2 || z2 F E3 F2 | z2 E D3 E2 | z2 C B,3 C2 | %7
 A,2 C2 ED F2 | z2 F E3 F2 | z2 E D3 E2 | z2 C B,3 C2 | z8 || DCD C4 z | EDE D4 z | z4 F2 E2 | %15
 D2 z2 z4 | z8 | z8 | z4 F2 E2 | F8 | z8 | z2 F E3 F2 | z2 F E3 F2 | z2 D C3 D2 | z8 | z2 F E3 F2 | %26
 z8 | F2 F2 G2 A2 | G4 F2 G2 || z8 | z8 | z8 | z8 | z8 | z8 | z8 | z2 F2 E2 z2 || DCD C4 z | %38
 EDE D4 z | z4 F2 E2 | D2 z2 z4 | z8 | z8 | z4 F2 E2 | F8 | z8 | z2 F E3 F2 | z2 F E3 F2 | %48
 z2 D C3 D2 | z8 | z2 F2 G2 A2 | G8 | z2 F E3 F2 | z2 F E3 F2 | z2 D C3 D2 | z8 | z2 F E3 F2 | %57
 F2 _G2 =G2 _A2 | F4 G2 _A2 | G4 E4 | F4 _A2 G2 | z4 F2 _E2 | z4 _E2 _D2 | z8 | z2 B,2 _E2 G2 | %65
 z8 | z2 F E3 F2 | z2 F E3 F2 | z2 D C3 D2 | z8 | z2 F2 G2 A2 | G8 | z2 F E3 F2 | z2 F E3 F2 | %74
 z2 D C3 D2 | z8 | z2 F E3 F2 | E2 F2 G2 A2 | F4 G2 A2 | G4 B4 | A8 |] %81
V:2
!mp! [A,DF]8 | [A,CE]8 | [F,B,D]8 | [F,A,C]4 [E,G,C]4 || [A,DF]8 | [A,CE]8 | [F,B,D]8 | %7
 [F,A,C]4 [E,G,C]4 | [A,DF]8 | [A,CE]8 | [F,B,D]8 |"_cresc." [F,A,C]2 [F,A,C]2 [E,G,C]2 [E,G,C]2 || %12
!mf! [G,B,D][G,B,D][G,B,D][G,B,D] [G,B,D][G,B,D][G,B,D][G,B,D] | %13
 [E,G,C][E,G,C][E,G,C][E,G,C] [E,G,C][E,G,C][E,G,C][E,G,C] | %14
 [E,A,C][E,A,C][E,A,C][E,A,C] [E,A,C][E,A,C][E,A,C][E,A,C] | [F,A,D]2 [F,A,D]2 [E,G,C]2 [E,G,C]2 | %16
 [G,B,D][G,B,D][G,B,D][G,B,D] [G,B,D][G,B,D][G,B,D][G,B,D] | %17
 [E,G,C][E,G,C][E,G,C][E,G,C] [E,G,C][E,G,C][E,G,C][E,G,C] | %18
 [E,A,C][E,A,C][E,A,C][E,A,C] [E,A,C][E,A,C][E,A,C][E,A,C] | %19
 [F,B,D][F,B,D][F,B,D][F,B,D] [F,B,D][F,B,D][F,B,D][F,B,D] | [E,G,C]4 z4 | %21
 [F,A,C][F,A,C][F,A,C][F,A,C] [F,A,C][F,A,C][F,A,C][F,A,C] | %22
 [E,G,C][E,G,C][E,G,C][E,G,C] [E,G,C][E,G,C][E,G,C][E,G,C] | %23
 [F,A,D][F,A,D][F,A,D][F,A,D] [F,A,D][F,A,D][F,A,D][F,A,D] | %24
 [E,A,C][E,A,C][E,A,C][E,A,C] [E,A,C][E,A,C][E,A,C][E,A,C] | %25
 [F,B,D][F,B,D][F,B,D][F,B,D] [F,B,D][F,B,D][F,B,D][F,B,D] | %26
 [E,G,C][E,G,C][E,G,C][E,G,C] [E,G,C][E,G,C][E,G,C][E,G,C] | [F,B,D]2 [F,B,D]2 [F,B,D]2 [F,B,D]2 | %28
 [E,G,C]2 [E,G,C]2 [E,G,C]2 [E,G,C]2 || [F,A,D]8 | [E,A,C]6 z .[F,B,D] | .[F,B,D]8 | %32
 [F,A,C]2 [F,A,C]2 [E,G,C]2 [E,G,C]2 | [F,A,D]8 | [E,A,C]8 | [F,B,D]8 | %36
 [F,A,C]2 [F,A,C]2 [E,G,C]2 [E,G,C]2 || [G,B,D][G,B,D][G,B,D][G,B,D] [G,B,D][G,B,D][G,B,D][G,B,D] | %38
 [E,G,C][E,G,C][E,G,C][E,G,C] [E,G,C][E,G,C][E,G,C][E,G,C] | %39
 [E,A,C][E,A,C][E,A,C][E,A,C] [E,A,C][E,A,C][E,A,C][E,A,C] | [F,A,D]2 [F,A,D]2 [E,G,C]2 [E,G,C]2 | %41
 [G,B,D][G,B,D][G,B,D][G,B,D] [G,B,D][G,B,D][G,B,D][G,B,D] | %42
 [E,G,C][E,G,C][E,G,C][E,G,C] [E,G,C][E,G,C][E,G,C][E,G,C] | %43
 [E,A,C][E,A,C][E,A,C][E,A,C] [E,A,C][E,A,C][E,A,C][E,A,C] | %44
 [F,B,D][F,B,D][F,B,D][F,B,D] [F,B,D][F,B,D][F,B,D][F,B,D] | [E,G,C]4 z4 | %46
 [F,A,C][F,A,C][F,A,C][F,A,C] [F,A,C][F,A,C][F,A,C][F,A,C] | %47
 [E,G,C][E,G,C][E,G,C][E,G,C] [E,G,C][E,G,C][E,G,C][E,G,C] | %48
 [F,A,D][F,A,D][F,A,D][F,A,D] [F,A,D][F,A,D][F,A,D][F,A,D] | %49
 [E,A,C][E,A,C][E,A,C][E,A,C] [E,A,C][E,A,C][E,A,C][E,A,C] | %50
 [F,B,D][F,B,D][F,B,D][F,B,D] [F,B,D][F,B,D][F,B,D][F,B,D] | [E,G,C]2 [E,G,C]2 [E,G,C]2 [E,G,C]2 | %52
 [F,A,C][F,A,C][F,A,C][F,A,C] [F,A,C][F,A,C][F,A,C][F,A,C] | %53
 [E,G,C][E,G,C][E,G,C][E,G,C] [E,G,C][E,G,C][E,G,C][E,G,C] | %54
 [F,A,D][F,A,D][F,A,D][F,A,D] [F,A,D][F,A,D][F,A,D][F,A,D] | %55
 [E,A,C][E,A,C][E,A,C][E,A,C] [E,A,C][E,A,C][E,A,C][E,A,C] | %56
 [F,B,D][F,B,D][F,B,D][F,B,D] [F,B,D][F,B,D][F,B,D][F,B,D] | %57
 [E,G,C][E,G,C][E,G,C][E,G,C] [E,G,C][E,G,C][E,G,C][E,G,C] | %58
 [F,^G,^C]2 [F,G,C]2 [F,G,C]2 [F,G,C]2 | [F,^A,^C]2 [F,A,C]2 [E,G,=C]2 [E,G,C]2 |!mp! [F,_A,C]8 | %61
 [_E,G,C]8 | [F,_A,_D]8 | [F,_A,D]2 [F,A,D]2 [F,A,D]2 [F,A,D]2 |"_cresc." [_E,G,B,]8 | %65
!mf! [E,G,C]2 [E,G,C]2 [E,G,C]2 [E,G,C]2 | %66
 [F,A,C][F,A,C][F,A,C][F,A,C] [F,A,C][F,A,C][F,A,C][F,A,C] | %67
 [E,G,C][E,G,C][E,G,C][E,G,C] [E,G,C][E,G,C][E,G,C][E,G,C] | %68
 [F,A,D][F,A,D][F,A,D][F,A,D] [F,A,D][F,A,D][F,A,D][F,A,D] | %69
 [E,A,C][E,A,C][E,A,C][E,A,C] [E,A,C][E,A,C][E,A,C][E,A,C] | %70
 [F,B,D][F,B,D][F,B,D][F,B,D] [F,B,D][F,B,D][F,B,D][F,B,D] | [E,G,C]2 [E,G,C]2 [E,G,C]2 [E,G,C]2 | %72
 [F,A,C][F,A,C][F,A,C][F,A,C] [F,A,C][F,A,C][F,A,C][F,A,C] | %73
 [E,G,C][E,G,C][E,G,C][E,G,C] [E,G,C][E,G,C][E,G,C][E,G,C] | %74
 [F,A,D][F,A,D][F,A,D][F,A,D] [F,A,D][F,A,D][F,A,D][F,A,D] | %75
 [E,A,C][E,A,C][E,A,C][E,A,C] [E,A,C][E,A,C][E,A,C][E,A,C] | %76
 [F,B,D][F,B,D][F,B,D][F,B,D] [F,B,D][F,B,D][F,B,D][F,B,D] | [E,G,C]2 [E,G,C]2 [E,G,C]2 [E,G,C]2 | %78
 [F,B,D]2 [F,B,D]2 [F,B,D]2 [F,B,D]2 |"_dim." [E,G,C]4 [E,G,C]4 |!mp! [F,A,C]8 |] %81

